X: 4389
M: 2/4
L: 1/8
K: C
|:\
d>ed>^c | (dg)d2 | (ba)(ba) | (ag)(ag) |\
d>ed>^c | (dg)d2 | (ba)(ba) | gz [gB]z :|


